X:1
T:Title
%%score { ( 1 3 ) | ( 2 4 ) }
L:1/8
M:4/4
K:Eb
V:1 treble nm="Grand Piano"
V:3 treble 
V:2 bass 
V:4 bass 
V:1
 z4 z2[Q:1/4=100] EF | G_G=G[Gc] [GB]GFE | G6 z2 | G_G=G[Gc] [GB]GFE | A6 z2 | %5
 [FA][=EG][FA][GB] [Bd][Ac][GB][FA] | GFGA [GB]2 [GB]G | FG=AB c=Bce |[M:7/8] d2 c2 [DB]3 | %9
[M:1/8] B |[M:4/4] [Ge][Gd][Gc][GB] [Gc][GB]GE | A8 | A2 z2 z2 .A2 | B6 z2 | %14
[M:3/4] [GB][GB] [GB][_G=A] [=GB]2 |[M:1/4] [GB][GB] |[M:4/4] ccc=B c2 e2 | dcBc dBc[Ad] | %18
[M:3/4] [Ge]6 |] %19
V:2
 z4 z2 [E,G,][E,A,E] | [E,B,E][E,=A,E][E,B,E][E,E] [E,E][E,B,E][E,_A,B,][E,G,B,] | %2
 .[B,E]2 CD .E2 [E,G,][E,A,E] | [E,B,E][E,=A,E][E,B,E][E,E] [E,E][E,B,E][_A,B,D][G,B,] | %4
 .[F,D]2 z2 z4 | [B,,B,][B,,B,][B,,B,][B,,B,] [B,,B,][B,,B,][B,,B,][B,,B,] | %6
 [E,B,E][A,B,D][G,B,E][F,B,F] [E,E]2 [E,E][E,B,E] | %7
 [F,=A,E][F,B,E][F,CE][F,B,D][K:treble] [F,A,F][F,_A,F][F,=A,F][F,CF] | %8
[M:7/8] [B,F]2[K:bass] [F,=A,E]2 [B,,B,]3 |[M:1/8] [B,A] | %10
[M:4/4] [E,B,][E,B,][E,E][E,E] [E,E][E,E][E,B,E][G,B,] | .[F,D]2 z2 z4 | %12
 [B,,B,]2 [F,B,D]2 z[K:treble] B[K:bass]B,,A, | [G,B,E][A,B,][G,B,][F,B,] [E,E]2 [E,B,E][E,B,] | %14
[M:3/4] [E,E][E,E] [E,E][E,E] [E,E]2 |[M:1/4] [E,E][E,E] | %16
[M:4/4][K:treble] [A,EA][A,EA][A,EA][A,DA] [A,EA]2 [=A,CF]2 | %17
 [B,F][B,EF][B,DF][B,EF] [B,F][B,DA][B,DA][K:bass][B,,B,] |[M:3/4] [E,B,]6 |] %19
V:3
 x8 | x8 | z B,3- B,B,EF | x8 | z CFE DB,[DF][EG] | x8 | x8 | x8 |[M:7/8] x7 |[M:1/8] x | %10
[M:4/4] x8 | z CFE D_D=D[DB] | dcBA .[DAc]2 [B,D]-[B,DF] | z FEA G2 G[FA] |[M:3/4] x6 |[M:1/4] x2 | %16
[M:4/4] x8 | x8 |[M:3/4] x6 |] %19
V:4
 x8 | x8 | E,6 z2 | x8 | B,-[E,B,-][D,B,-][C,B,-] [B,,B,]2 [B,,B,][B,,B,] | x8 | x8 | %7
 x4[K:treble] x4 |[M:7/8] x2[K:bass] x5 |[M:1/8] x |[M:4/4] x8 | %11
 B,-[E,B,-][D,B,-][C,B,-] [B,,B,]3 [B,,B,] | z4 B,,2[K:treble][K:bass] z2 | x8 |[M:3/4] x6 | %15
[M:1/4] x2 |[M:4/4][K:treble] x8 | x7[K:bass] x |[M:3/4] x6 |] %19

